icons/2_Variations/Gaijin Entertainment bg.var.svg

<svg width="1024" height="1024" viewBox="0 0 1024 1024" fill="none" xmlns="http://www.w3.org/2000/svg">
<g clip-path="url(#clip0_3_92)">
<path d="M512 1024C794.77 1024 1024 794.77 1024 512C1024 229.23 794.77 0 512 0C229.23 0 0 229.23 0 512C0 794.77 229.23 1024 512 1024Z" fill="#96DFD3"/>
<path d="M670.149 272.819C668.749 265.439 678.379 262.489 677.779 247.969C676.999 214.619 629.999 222.569 641.449 260.999C658.779 323.929 648.729 367.669 637.769 389.719C632.319 400.719 621.859 387.599 620.129 379.489C606.919 317.279 577.759 301.009 593.529 258.359C605.949 224.819 553.869 211.299 557.189 258.999C557.519 269.329 573.089 331.099 571.899 367.399C571.769 371.789 560.669 374.809 555.759 372.949C533.139 364.419 510.489 361.219 487.869 360.259C388.499 360.259 307.869 440.929 307.869 540.259C307.869 614.789 344.999 673.809 405.549 698.649C392.399 717.249 395.049 735.549 383.359 758.929C482.359 750.499 502.819 690.549 564.959 690.749C622.349 690.689 618.669 691.189 676.119 690.349C687.679 690.149 682.559 666.399 679.969 661.589C616.369 543.459 687.179 453.189 687.969 421.969C689.339 369.559 683.119 341.999 670.149 272.819ZM600.889 637.639C557.289 628.639 485.249 683.839 440.379 675.639C416.379 671.029 397.139 584.749 381.229 545.729C376.229 534.009 369.229 529.519 363.799 520.919C358.799 513.009 362.599 503.149 361.279 498.169C353.409 468.549 441.949 422.449 520.329 410.329L588.599 413.749L593.489 433.179L614.719 437.869L609.139 475.569L510.869 461.569C474.309 475.889 448.629 479.029 420.569 504.939C426.569 514.099 422.789 526.789 428.979 535.939C431.129 539.169 441.559 540.299 443.679 543.319C439.969 552.819 453.119 575.639 454.409 581.679L461.749 626.979C495.439 615.089 539.799 594.069 566.169 591.509C586.169 591.879 570.719 558.729 566.669 540.359C561.729 517.359 526.819 537.969 496.859 550.469L511.739 582.219L499.739 599.549L494.289 586.859L486.189 593.699L463.799 531.899L480.799 510.969L500.069 516.719C520.559 507.789 551.609 483.339 575.829 493.719C581.069 495.969 581.409 500.719 583.489 509.029L594.859 513.999C601.459 550.629 650.649 647.879 600.889 637.639Z" fill="white"/>
</g>
<defs>
<clipPath id="clip0_3_92">
<rect width="1024" height="1024" fill="white"/>
</clipPath>
</defs>
</svg>

<svg width="1024" height="1024" fill="none" xmlns="http://www.w3.org/2000/svg"><g clip-path="url(#a)"><path d="M512 1024c282.77 0 512-229.23 512-512S794.77 0 512 0 0 229.23 0 512s229.23 512 512 512Z" fill="#96DFD3"/><path d="M670.149 272.819c-1.4-7.38 8.23-10.33 7.63-24.85-.78-33.35-47.78-25.4-36.33 13.03 17.33 62.93 7.28 106.67-3.68 128.72-5.45 11-15.91-2.12-17.64-10.23-13.21-62.21-42.37-78.48-26.6-121.13 12.42-33.54-39.66-47.06-36.34.64.33 10.33 15.9 72.1 14.71 108.4-.13 4.39-11.23 7.41-16.14 5.55-22.62-8.53-45.27-11.73-67.89-12.69-99.37 0-180 80.67-180 180 0 74.53 37.13 133.55 97.68 158.39-13.15 18.6-10.5 36.9-22.19 60.28 99-8.43 119.46-68.38 181.6-68.18 57.39-.06 53.71.44 111.16-.4 11.56-.2 6.44-23.95 3.85-28.76-63.6-118.13 7.21-208.4 8-239.62 1.37-52.41-4.85-79.97-17.82-149.15Zm-69.26 364.82c-43.6-9-115.64 46.2-160.51 38-24-4.61-43.24-90.89-59.15-129.91-5-11.72-12-16.21-17.43-24.81-5-7.91-1.2-17.77-2.52-22.75-7.87-29.62 80.67-75.72 159.05-87.84l68.27 3.42 4.89 19.43 21.23 4.69-5.58 37.7-98.27-14c-36.56 14.32-62.24 17.46-90.3 43.37 6 9.16 2.22 21.85 8.41 31 2.15 3.23 12.58 4.36 14.7 7.38-3.71 9.5 9.44 32.32 10.73 38.36l7.34 45.3c33.69-11.89 78.05-32.91 104.42-35.47 20 .37 4.55-32.78.5-51.15-4.94-23-39.85-2.39-69.81 10.11l14.88 31.75-12 17.33-5.45-12.69-8.1 6.84-22.39-61.8 17-20.93 19.27 5.75c20.49-8.93 51.54-33.38 75.76-23 5.24 2.25 5.58 7 7.66 15.31l11.37 4.97c6.6 36.63 55.79 133.88 6.03 123.64Z" fill="#fff"/></g><defs><clipPath id="a"><path fill="#fff" d="M0 0h1024v1024H0z"/></clipPath></defs></svg>
